X:4251
T:Miss Johnston
O:england
R:Reel
S:Paddy Canny, Clare (fiddle)
D:Home tape of unknown provenance
N:As played
M:4/4
K:G
|: BcdB G2~G2 | DGBG DGBG | BcdB GBAG | FGAB {d}cAdc |
BcdB G2~G2 | DGBG DGBc | (3dcB cA BG (3.A.A.F | DEFG AB{d}cA :|
|: Bcde dB~B2 | dBgB aBgB | Bcde dBcB | A2ag fedc |
Bcde dB~B2 | dBgB aBgB | (3.f.f.g fe defg | ~a3g fdcA :|
